X:9
T:Den 99-an'
C:etter Charles Karlsen
C:arr. for torader
O: Norway
L:1/8
M:2/4
Q:1/8=230
R:Pariser
K:D
% %staffsep 0.62cm
% %rightmargin 11.5cm
"Intro"\
[V:1]cd ef | gA Bc | d2 d2
[V:2] x4 | x4 | x4
% %rightmargin 2.78cm
% %staves 1 2
%P:A
[V:1]|: "D"DF DF | A2 A2 | Ad Ad | f2 f2 | [1 "A"g>f ed | cB A2 |
[V:2]|: D2 FA | d2 d2 | D2 FA | d2 d2 |[1 e>f gf | e2 c2 |
[V:1]"A"EF GA | "G"G2 "D"F2 :|[2 "A"g>f ed | cd ef | gA Bc | "D"d2 d2 :|
[V:2]GA Bc | AA AF :|[2 e>f gf | ed cc | AA AG | F2 F2 :|
%P:B
[V:1]|: "G"g>a gf | e2 B2 | "D"f>g fe | d2 A2 |[1 "A"e>f ed | cB A2 |
[V:2]|: b>c' ba | g2 g2 | a>b ag | f2 f2 |[1 g>a gf | e2 c2 |
[V:1]"A"EF GA | "G"G2 "D"F2 :|[2 "A"e>f ed | cd ef | gA Bc | "D"d2 d2 :|
[V:2]GA Bc | A2 A2 :|[2 g>a gf | ed cc | AA Bc | A2 A2 :|

